src/pos-icons/drawing-box.svg

<svg height="24" viewBox="0 0 24 24" width="24" xmlns="http://www.w3.org/2000/svg"><path d="m18 18h-6v-5.79c-.66.61-1.53.99-2.5.99-2.04 0-3.7-1.66-3.7-3.7a3.7 3.7 0 0 1 3.7-3.7c2.04 0 3.7 1.66 3.7 3.7 0 .97-.38 1.84-.99 2.5h5.79m1-9h-14c-1.11 0-2 .89-2 2v14a2 2 0 0 0 2 2h14a2 2 0 0 0 2-2v-14c0-1.11-.9-2-2-2z"/></svg>

<?xml version="1.0" encoding="UTF-8"?><!DOCTYPE svg PUBLIC "-//W3C//DTD SVG 1.1//EN" "http://www.w3.org/Graphics/SVG/1.1/DTD/svg11.dtd"><svg xmlns="http://www.w3.org/2000/svg" xmlns:xlink="http://www.w3.org/1999/xlink" version="1.1" id="mdi-drawing-box" width="24" height="24" viewBox="0 0 24 24"><path d="M18,18H12V12.21C11.34,12.82 10.47,13.2 9.5,13.2C7.46,13.2 5.8,11.54 5.8,9.5A3.7,3.7 0 0,1 9.5,5.8C11.54,5.8 13.2,7.46 13.2,9.5C13.2,10.47 12.82,11.34 12.21,12H18M19,3H5C3.89,3 3,3.89 3,5V19A2,2 0 0,0 5,21H19A2,2 0 0,0 21,19V5C21,3.89 20.1,3 19,3Z" /></svg>
